img/icon_predict.svg

<svg width="140" height="140" viewBox="0 0 140 140" fill="none" xmlns="http://www.w3.org/2000/svg">
<path fill-rule="evenodd" clip-rule="evenodd" d="M7.77764 93.5436L20.3667 72.212L28.9067 77.7403C29.351 78.0279 29.8919 78.126 30.4088 78.0129C30.926 77.8998 31.3765 77.5846 31.66 77.1377L47.0491 52.8882L55.0107 65.1905C55.3741 65.752 55.9957 66.0924 56.6643 66.0965C57.3331 66.1008 57.9588 65.7677 58.3288 65.2105L80.4536 31.9146L93.8436 59.9858C94.1586 60.646 94.811 61.0793 95.5415 61.1136C96.2722 61.1479 96.9622 60.7774 97.3374 60.1498L112.502 34.7853L133.346 87.9458C125.361 115.602 99.8324 135.845 69.6136 135.845C41.475 135.845 17.4034 118.293 7.77764 93.5436ZM6.07336 88.6236C4.23621 82.5682 3.25455 76.141 3.25455 69.4865C3.25455 32.862 32.9891 3.12744 69.6136 3.12744C106.238 3.12744 135.972 32.862 135.972 69.4865C135.972 73.4565 135.623 77.3455 134.933 81.1212L114.721 29.5732C114.445 28.8686 113.791 28.3824 113.037 28.3201C112.283 28.2577 111.559 28.6298 111.17 29.2793L95.8315 54.9358L82.5286 27.0474C82.221 26.4027 81.5905 25.9729 80.8779 25.9224C80.1653 25.872 79.4807 26.2086 79.0853 26.8036L56.6984 60.4943L48.6984 48.1329C48.3312 47.5653 47.7 47.2239 47.0238 47.227C46.3479 47.2298 45.7198 47.577 45.3574 48.1479L29.3824 73.321L20.7872 67.757C20.3336 67.4632 19.7798 67.3674 19.2536 67.4912C18.7276 67.6153 18.275 67.9486 18.0003 68.4141L6.07336 88.6236Z" fill="#009AD6"/>
<path fill-rule="evenodd" clip-rule="evenodd" d="M71.9927 52.7429C86.881 44.1472 105.947 49.256 114.543 64.1443C123.139 79.0327 118.03 98.0989 103.141 106.695C88.2531 115.29 69.1872 110.181 60.5912 95.2931C51.9955 80.4048 57.1043 61.3389 71.9927 52.7429Z" fill="white"/>
<path fill-rule="evenodd" clip-rule="evenodd" d="M71.4966 51.8847C56.134 60.7542 50.8626 80.4275 59.7321 95.7901C68.6016 111.153 88.275 116.424 103.638 107.554C119 98.6849 124.271 79.0116 115.402 63.6492C106.532 48.2866 86.859 43.0151 71.4966 51.8847ZM72.4885 53.603C86.9028 45.2809 105.362 50.2271 113.684 64.6411C122.006 79.0554 117.06 97.5142 102.645 105.836C88.2314 114.158 69.7724 109.212 61.4504 94.798C53.1283 80.384 58.0745 61.9249 72.4885 53.603Z" fill="#009AD6"/>
<path fill-rule="evenodd" clip-rule="evenodd" d="M73.7328 55.7629C60.5083 63.3982 55.9705 80.3336 63.6057 93.5584C71.2409 106.783 88.1764 111.321 101.401 103.686C114.626 96.0503 119.164 79.1148 111.528 65.8901C103.893 52.6655 86.9576 48.1277 73.7328 55.7629ZM75.2209 58.3403C87.0231 51.5265 102.137 55.5762 108.951 67.3781C115.765 79.1803 111.715 94.2943 99.9131 101.108C88.1109 107.922 72.9971 103.872 66.1831 92.0703C59.3693 80.2681 63.419 65.1543 75.2209 58.3403Z" fill="#009AD6"/>
<path d="M86.5098 87.6677H77.0943L75.3043 93.0377H69.5941L79.296 66.9751H84.2724L94.0279 93.0377H88.3176L86.5098 87.6677ZM78.5443 83.318H85.0598L81.7841 73.5622L78.5443 83.318Z" fill="#009AD6"/>
<path d="M102.905 66.9751H97.5355V93.0377H102.905V66.9751Z" fill="#009AD6"/>
<path fill-rule="evenodd" clip-rule="evenodd" d="M105.337 105.427L99.4793 108.809L106.019 120.136L111.876 116.754L105.337 105.427Z" fill="white"/>
<path fill-rule="evenodd" clip-rule="evenodd" d="M106.196 104.932C105.922 104.458 105.315 104.295 104.841 104.569L98.9833 107.951C98.5088 108.225 98.3462 108.832 98.6202 109.306L105.16 120.633C105.434 121.108 106.04 121.27 106.515 120.996L112.373 117.614C112.847 117.34 113.01 116.733 112.736 116.259L106.196 104.932ZM100.835 109.173L106.382 118.782L110.521 116.392L104.974 106.783L100.835 109.173Z" fill="#009AD6"/>
<path fill-rule="evenodd" clip-rule="evenodd" d="M111.876 116.758L106.019 120.14L115.668 136.852L121.525 133.47L111.876 116.758Z" fill="white"/>
<path fill-rule="evenodd" clip-rule="evenodd" d="M112.736 116.263C112.462 115.788 111.855 115.626 111.38 115.9L105.523 119.282C105.048 119.556 104.886 120.162 105.16 120.637L114.809 137.349C115.083 137.824 115.689 137.986 116.164 137.712L122.021 134.33C122.496 134.057 122.659 133.45 122.385 132.975L112.736 116.263ZM107.374 120.504L116.031 135.498L120.17 133.108L111.513 118.114L107.374 120.504Z" fill="#009AD6"/>
</svg>

<svg width="140" height="140" fill="none" xmlns="http://www.w3.org/2000/svg"><path fill-rule="evenodd" clip-rule="evenodd" d="M7.778 93.544l12.589-21.332 8.54 5.528a1.984 1.984 0 002.753-.602l15.39-24.25 7.96 12.303a1.984 1.984 0 003.319.02l22.125-33.296 13.39 28.07a1.984 1.984 0 003.493.165l15.165-25.365 20.844 53.16c-7.985 27.657-33.514 47.9-63.732 47.9-28.139 0-52.21-17.552-61.836-42.301zm-1.705-4.92a65.825 65.825 0 01-2.818-19.137c0-36.625 29.734-66.36 66.359-66.36 36.624 0 66.358 29.735 66.358 66.36 0 3.97-.349 7.859-1.039 11.634l-20.212-51.548a1.985 1.985 0 00-3.551-.294L95.832 54.936 82.529 27.047a1.985 1.985 0 00-3.444-.243l-22.387 33.69-8-12.361a1.984 1.984 0 00-3.34.015L29.381 73.32l-8.595-5.564a1.985 1.985 0 00-2.787.657L6.073 88.624z" fill="#009AD6"/><path fill-rule="evenodd" clip-rule="evenodd" d="M71.993 52.743c14.888-8.596 33.954-3.487 42.55 11.401 8.596 14.889 3.487 33.955-11.402 42.551-14.888 8.595-33.954 3.486-42.55-11.402-8.596-14.888-3.487-33.954 11.402-42.55z" fill="#fff"/><path fill-rule="evenodd" clip-rule="evenodd" d="M71.497 51.885c-15.363 8.87-20.634 28.542-11.765 43.905 8.87 15.363 28.543 20.634 43.906 11.764 15.362-8.87 20.633-28.542 11.764-43.905-8.87-15.362-28.543-20.634-43.905-11.764zm.992 1.718c14.414-8.322 32.873-3.376 41.195 11.038 8.322 14.414 3.376 32.873-11.039 41.195-14.414 8.322-32.873 3.376-41.195-11.038-8.322-14.414-3.376-32.873 11.038-41.195z" fill="#009AD6"/><path fill-rule="evenodd" clip-rule="evenodd" d="M73.733 55.763c-13.225 7.635-17.763 24.57-10.127 37.795 7.635 13.225 24.57 17.763 37.795 10.128 13.225-7.636 17.763-24.571 10.127-37.796-7.635-13.224-24.57-17.762-37.795-10.127zm1.488 2.577c11.802-6.814 26.916-2.764 33.73 9.038 6.814 11.802 2.764 26.916-9.038 33.73-11.802 6.814-26.916 2.764-33.73-9.038-6.814-11.802-2.764-26.916 9.038-33.73z" fill="#009AD6"/><path d="M86.51 87.668h-9.416l-1.79 5.37h-5.71l9.702-26.063h4.976l9.756 26.063h-5.71l-1.808-5.37zm-7.966-4.35h6.516l-3.276-9.756-3.24 9.756zm24.361-16.343h-5.37v26.063h5.37V66.975z" fill="#009AD6"/><path fill-rule="evenodd" clip-rule="evenodd" d="M105.337 105.427l-5.858 3.382 6.54 11.327 5.857-3.382-6.539-11.327z" fill="#fff"/><path fill-rule="evenodd" clip-rule="evenodd" d="M106.196 104.932a.992.992 0 00-1.355-.363l-5.858 3.382a.992.992 0 00-.363 1.355l6.54 11.327a.991.991 0 001.355.363l5.858-3.382a.992.992 0 00.363-1.355l-6.54-11.327zm-5.361 4.241l5.547 9.609 4.139-2.39-5.547-9.609-4.139 2.39z" fill="#009AD6"/><path fill-rule="evenodd" clip-rule="evenodd" d="M111.876 116.758l-5.857 3.382 9.649 16.712 5.857-3.382-9.649-16.712z" fill="#fff"/><path fill-rule="evenodd" clip-rule="evenodd" d="M112.736 116.263a.992.992 0 00-1.356-.363l-5.857 3.382a.991.991 0 00-.363 1.355l9.649 16.712a.991.991 0 001.355.363l5.857-3.382a.991.991 0 00.364-1.355l-9.649-16.712zm-5.362 4.241l8.657 14.994 4.139-2.39-8.657-14.994-4.139 2.39z" fill="#009AD6"/></svg>
